dist/images/email.svg

<svg width="22" height="18" viewBox="0 0 22 18" fill="none" xmlns="http://www.w3.org/2000/svg">
<path d="M1 4L9.16492 9.71544C9.82609 10.1783 10.1567 10.4097 10.5163 10.4993C10.8339 10.5785 11.1661 10.5785 11.4837 10.4993C11.8433 10.4097 12.1739 10.1783 12.8351 9.71544L21 4M5.8 17H16.2C17.8802 17 18.7202 17 19.362 16.673C19.9265 16.3854 20.3854 15.9265 20.673 15.362C21 14.7202 21 13.8802 21 12.2V5.8C21 4.11984 21 3.27976 20.673 2.63803C20.3854 2.07354 19.9265 1.6146 19.362 1.32698C18.7202 1 17.8802 1 16.2 1H5.8C4.11984 1 3.27976 1 2.63803 1.32698C2.07354 1.6146 1.6146 2.07354 1.32698 2.63803C1 3.27976 1 4.11984 1 5.8V12.2C1 13.8802 1 14.7202 1.32698 15.362C1.6146 15.9265 2.07354 16.3854 2.63803 16.673C3.27976 17 4.11984 17 5.8 17Z" stroke="white" stroke-width="1.5" stroke-linecap="round" stroke-linejoin="round"/>
</svg>

<svg width="22" height="18" fill="none" xmlns="http://www.w3.org/2000/svg"><path d="M1 4l8.165 5.715c.661.463.992.695 1.351.784a2 2 0 00.968 0c.36-.09.69-.32 1.351-.784L21 4M5.8 17h10.4c1.68 0 2.52 0 3.162-.327a3 3 0 001.311-1.311C21 14.72 21 13.88 21 12.2V5.8c0-1.68 0-2.52-.327-3.162a3 3 0 00-1.311-1.311C18.72 1 17.88 1 16.2 1H5.8c-1.68 0-2.52 0-3.162.327a3 3 0 00-1.311 1.311C1 3.28 1 4.12 1 5.8v6.4c0 1.68 0 2.52.327 3.162a3 3 0 001.311 1.311C3.28 17 4.12 17 5.8 17z" stroke="#fff" stroke-width="1.5" stroke-linecap="round" stroke-linejoin="round"/></svg>
